X:1
T:Wingate, 98.87 D
T:William James Kirkpatrick, 1903
T:Wingate, 98.87 D
T:Public Domain
C:William James Kirkpatrick, 1903
Z:Public Domain
%%score ( 1 2 ) ( 3 4 )
L:1/8
M:4/4
K:Eb
V:1 treble 
V:2 treble 
V:3 bass 
V:4 bass 
V:1
 [EG]2 [EG]2 [EG]2 [B,F][B,E] | [EG]2 [EB]2 [Ec]2 [EB]2 | [EG]2 [EG]2 [EG]2 [B,F][B,E] | %3
 [EG]2 [EF]2 [DF]4 | [EG]2 [EG]2 [EG]2 (FE) | [EG]2 [EB]2 [Ec]2 [EB]2 | %6
 [Ge]2 [EG]2 [GB]2 ([GB][FA]) | [EG]2 [DF]2 E4 | [DF]2 [DF]2 [DF]2 [DF][EG] | %9
 [FA]2 [DB]2 [FA]2 [EG]2 | [FB]2 [FB]2 [DB]2 [=EB][Ec] | [Fd]2 [Ec]2 [DB]4 | %12
 [EB]2 [Ge]2 [Ge]2 (dc) | [EB]2 [Ec]2 [EB]2 [EG]2 | [Ec]2 [Ec]2 [EB]2 (EA) | [EG]2 [DF]2 E4 |] %16
V:2
 x8 | x8 | x8 | x8 | x6 B,2 | x8 | x8 | x4 E4 | x8 | x8 | x8 | x8 | x6 E2 | x8 | x6 E2 | x4 E4 |] %16
V:3
 [E,B,]2 [E,B,]2 [E,B,]2 [E,A,][E,G,] | [E,B,]2 [E,G,]2 [E,A,]2 [E,G,]2 | %2
 [E,B,]2 [E,B,]2 [E,B,]2 [E,A,][E,G,] | [C,=A,]2 [F,A,]2 [B,,B,]4 | %4
 [E,B,]2 [E,B,]2 [E,B,]2 (A,G,) | [E,B,]2 [E,G,]2 [E,A,]2 [E,G,]2 | [C,C]2 [C,C]2 [=E,_D]2 [F,C]2 | %7
 [B,,B,]2 [B,,A,]2 [E,G,]4 | [B,,B,]2 [B,,B,]2 [B,,B,]2 [B,,B,][B,,B,] | %9
 [B,,B,]2 [B,,B,]2 [E,B,]2 [E,B,]2 | [D,B,]2 [D,B,]2 [G,B,]2 [_G,B,][G,B,] | %11
 [F,B,]2 [F,=A,]2 [B,,B,]4 | [E,G,]2 [E,B,]2 [E,B,]2 [E,A,]2 | [E,G,]2 [E,A,]2 [E,G,]2 [E,B,]2 | %14
 A,2 [A,E]2 [G,E]2 [A,C]2 | B,2 [B,,A,]2 [E,G,]4 |] %16
V:4
 x8 | x8 | x8 | x8 | x6 E,2 | x8 | x8 | x8 | x8 | x8 | x8 | x8 | x8 | x8 | A,2 x6 | B,2 x6 |] %16

